svgs/sharp-light/paste.svg

<svg xmlns="http://www.w3.org/2000/svg" viewBox="0 0 512 512"><!--! Font Awesome Pro 6.6.0 by @fontawesome - https://fontawesome.com License - https://fontawesome.com/license (Commercial License) Copyright 2024 Fonticons, Inc. --><path d="M136.5 51.2C138.7 40.2 148.4 32 160 32s21.3 8.2 23.5 19.2L186.1 64l5.9 0 7.2 0L224 64l8 0 24 0 32 0 0 32 32 0 0-32 0-32-32 0-32 0-16 0-29.4 0c-9-18.9-28.3-32-50.6-32s-41.6 13.1-50.6 32L80 32 64 32 32 32 0 32 0 64 0 416l0 32 32 0 160 0 0-32L32 416 32 64l32 0 0 48 0 16 16 0 112 0 0-32L96 96l0-32 24.8 0 13.1 0 2.6-12.8zM480 480l-224 0 0-320 138.7 0L480 245.3 480 480zm32-248L408 128l-152 0-32 0 0 32 0 320 0 32 32 0 224 0 32 0 0-32 0-248z"/></svg>

<svg xmlns="http://www.w3.org/2000/svg" viewBox="0 0 512 512"><!--! Font Awesome Pro 6.4.2 by @fontawesome - https://fontawesome.com License - https://fontawesome.com/license (Commercial License) Copyright 2023 Fonticons, Inc. --><path d="M136.5 51.2C138.7 40.2 148.4 32 160 32s21.3 8.2 23.5 19.2L186.1 64H192h7.2H224h8 24 32V96h32V64 32H288 256 240 210.6c-9-18.9-28.3-32-50.6-32s-41.6 13.1-50.6 32H80 64 32 0V64 416v32H32 192V416H32V64H64v48 16H80 192V96H96V64h24.8 13.1l2.6-12.8zM256 480V160H384v80 16h16 80V480H256zM416 165.3L474.7 224H416V165.3zm8-37.3H256 224v32V480v32h32H480h32V480 216l-88-88z"/></svg>
